X:915
T:Filoro #2 
C:Joe Buchanan's Scottish Tome - Page 525.1
I:525 1
Z:Carl Allison
R:Waltz
L:1/4
M:3/4
K:F
A | "F"c3 | "Am"A2 G | "Dm"F3 | "C7"G2 A | "F"C3 | "Bb"D C D | "F"F3- | "F"F2 A |
"F"c3 | "Am"A2 G | "Dm"F3 | "C7"G2 A | "F"C2 C | "Bb"D C D | "F"F3- | "F"F2 C |
"F7"F2 F | "Bb"B2 c | "Dm"d2 d | "C7"c2 d | "F"c2 c | "F7"A G F | "Bb"B3 | "C7"c2 d |
"F"A c2 | "Am"A2 G | "Dm"F3 | "Am"G2 A | "F"C2 C | "Bb"D C D | "F"F3- | "F"F2 :|

